images/icons2.svg

<svg aria-hidden="true" style="position: absolute; width: 0; height: 0; overflow: hidden;" version="1.1" xmlns="http://www.w3.org/2000/svg" xmlns:xlink="http://www.w3.org/1999/xlink">
<defs>
<symbol id="icon-envelope" viewBox="0 0 24 32 ">
<path fill="#757575" style="fill: var(--color1, #757575)" d="M38.667 0h-34.667c-2.206 0-4 1.794-4 4v24c0 2.206 1.794 4 4 4h34.667c2.206 0 4-1.794 4-4v-24c0-2.206-1.794-4-4-4zM38.667 2.667c0.181 0 0.353 0.038 0.511 0.103l-17.844 15.466-17.844-15.466c0.158-0.066 0.33-0.103 0.511-0.103h34.667zM38.667 29.333h-34.667c-0.736 0-1.333-0.598-1.333-1.333v-22.413l17.793 15.421c0.251 0.217 0.563 0.326 0.874 0.326s0.622-0.108 0.874-0.326l17.793-15.421v22.413c0 0.736-0.598 1.333-1.333 1.333z"></path>
</symbol>
<symbol id="icon-smartphone" viewBox="0 0 20 32">
<path fill="#757575" style="fill: var(--color1, #757575)" d="M17 0h-14c-1.654 0-3 1.346-3 3v26c0 1.654 1.346 3 3 3h14c1.654 0 3-1.346 3-3v-26c0-1.654-1.346-3-3-3zM3 2h14c0.552 0 1 0.448 1 1v21h-16v-21c0-0.552 0.448-1 1-1zM17 30h-14c-0.552 0-1-0.448-1-1v-3h16v3c0 0.552-0.448 1-1 1z"></path>
<path fill="#757575" style="fill: var(--color1, #757575)" d="M4.707 27.478c0.391 0.365 0.391 0.956 0 1.321s-1.024 0.365-1.414 0c-0.391-0.365-0.391-0.956 0-1.321s1.024-0.365 1.414 0z"></path>
</symbol>
</defs>
</svg>

<svg aria-hidden="true" style="position:absolute;width:0;height:0;overflow:hidden" xmlns="http://www.w3.org/2000/svg"><defs><symbol id="icon-envelope" viewBox="0 0 24 32"><path fill="#757575" style="fill:var(--color1, #757575)" d="M38.667 0H4C1.794 0 0 1.794 0 4v24c0 2.206 1.794 4 4 4h34.667c2.206 0 4-1.794 4-4V4c0-2.206-1.794-4-4-4zm0 2.667c.181 0 .353.038.511.103L21.334 18.236 3.49 2.77a1.32 1.32 0 0 1 .511-.103h34.667zm0 26.666H4A1.334 1.334 0 0 1 2.667 28V5.587L20.46 21.008a1.335 1.335 0 0 0 1.748 0L40.001 5.587V28c0 .736-.598 1.333-1.333 1.333z"/></symbol><symbol id="icon-smartphone" viewBox="0 0 20 32"><path fill="#757575" style="fill:var(--color1, #757575)" d="M17 0H3C1.346 0 0 1.346 0 3v26c0 1.654 1.346 3 3 3h14c1.654 0 3-1.346 3-3V3c0-1.654-1.346-3-3-3zM3 2h14a1 1 0 0 1 1 1v21H2V3a1 1 0 0 1 1-1zm14 28H3a1 1 0 0 1-1-1v-3h16v3a1 1 0 0 1-1 1z"/><path fill="#757575" style="fill:var(--color1, #757575)" d="M4.707 27.478c.391.365.391.956 0 1.321s-1.024.365-1.414 0c-.391-.365-.391-.956 0-1.321s1.024-.365 1.414 0z"/></symbol></defs></svg>
